app/assets/images/heroicons/micro/wallet.svg

<svg width="16" height="16" viewBox="0 0 16 16" fill="none" xmlns="http://www.w3.org/2000/svg">
<path d="M2 3.5C2 2.67157 2.67157 2 3.5 2H12.5C13.3284 2 14 2.67157 14 3.5V3.90135C13.5587 3.64609 13.0464 3.5 12.5 3.5H3.5C2.95357 3.5 2.44126 3.64609 2 3.90135V3.5Z" fill="black"/>
<path d="M3.5 5C2.67157 5 2 5.67157 2 6.5V6.90135C2.44126 6.64609 2.95357 6.5 3.5 6.5H12.5C13.0464 6.5 13.5587 6.64609 14 6.90135V6.5C14 5.67157 13.3284 5 12.5 5H3.5Z" fill="black"/>
<path d="M8 10C8.93374 10 9.71803 9.36012 9.93829 8.49494C10.0064 8.22733 10.2239 8 10.5 8H12.5C13.3284 8 14 8.67157 14 9.5V12.5C14 13.3284 13.3284 14 12.5 14H3.5C2.67157 14 2 13.3284 2 12.5V9.5C2 8.67157 2.67157 8 3.5 8H5.5C5.77614 8 5.99359 8.22733 6.06171 8.49494C6.28197 9.36012 7.06626 10 8 10Z" fill="black"/>
</svg>

<svg xmlns="http://www.w3.org/2000/svg" viewBox="0 0 16 16" fill="currentColor" aria-hidden="true" data-slot="icon">
  <path d="M2 3.5A1.5 1.5 0 0 1 3.5 2h9A1.5 1.5 0 0 1 14 3.5v.401a2.986 2.986 0 0 0-1.5-.401h-9c-.546 0-1.059.146-1.5.401V3.5ZM3.5 5A1.5 1.5 0 0 0 2 6.5v.401A2.986 2.986 0 0 1 3.5 6.5h9c.546 0 1.059.146 1.5.401V6.5A1.5 1.5 0 0 0 12.5 5h-9ZM8 10a2 2 0 0 0 1.938-1.505c.068-.268.286-.495.562-.495h2A1.5 1.5 0 0 1 14 9.5v3a1.5 1.5 0 0 1-1.5 1.5h-9A1.5 1.5 0 0 1 2 12.5v-3A1.5 1.5 0 0 1 3.5 8h2c.276 0 .494.227.562.495A2 2 0 0 0 8 10Z"/>
</svg>
